projects/oblique/icons/FileVideo.svg

<?xml version="1.0" encoding="UTF-8"?><svg id="a" xmlns="http://www.w3.org/2000/svg" viewBox="0 0 24 24"><path d="M8.82297,1.25033l-5.57324,7.71094v13.78906h17.5V1.25033h-11.92676ZM8.45676,4.31771v4.13574h-2.98926l2.98926-4.13574ZM6.03134,21.25033v.4668h-.7489v-1.01562h.7489v.54883ZM7.84366,21.25033v.4668h-.7489v-1.01562h.7489v.54883ZM9.65598,21.25033v.4668h-.7489v-1.01562h.7489v.54883ZM11.46829,21.25033v.4668h-.7489v-1.01562h.7489v.54883ZM13.28061,21.25033v.4668h-.7489v-1.01562h.7489v.54883ZM15.09293,21.25033v.4668h-.7489v-1.01562h.7489v.54883ZM16.90524,21.25033v.4668h-.7489v-1.01562h.7489v.54883ZM18.71756,21.25033v.4668h-.7489v-1.01562h.7489v.54883ZM19.24973,20.17904H4.75003v-6.90332h14.49969v6.90332ZM5.28244,12.7474v-1.01562h.7489v1.01562h-.7489ZM7.09476,12.7474v-1.01562h.7489v1.01562h-.7489ZM8.90707,12.7474v-1.01562h.7489v1.01562h-.7489ZM10.71939,12.7474v-1.01562h.7489v1.01562h-.7489ZM12.53171,12.7474v-1.01562h.7489v1.01562h-.7489ZM14.34402,12.7474v-1.01562h.7489v1.01562h-.7489ZM16.15634,12.7474v-1.01562h.7489v1.01562h-.7489ZM17.96866,12.7474v-1.01562h.7489v1.01562h-.7489ZM19.24973,10.70443H4.74973v-.75098h5.20703V2.75033h9.29297v7.9541ZM10.62473,13.66439v6.12305l3.06055-3.06055-3.06055-3.0625ZM11.68747,16.10189l.62506.625-.625.625-.00006-1.25Z"/></svg>

<svg xmlns="http://www.w3.org/2000/svg" viewBox="0 0 24 24"><title>FileVideo</title><path d="M8.823,1.25033,3.24973,8.96126V22.75033h17.5v-21.5ZM8.45676,4.31771V8.45345H5.4675ZM6.03134,21.25033v.46679h-.7489V20.7015h.7489Zm1.81232,0v.46679h-.7489V20.7015h.7489Zm1.81232,0v.46679H8.90707V20.7015H9.656Zm1.81231,0v.46679h-.7489V20.7015h.7489Zm1.81232,0v.46679h-.7489V20.7015h.7489Zm1.81232,0v.46679H14.344V20.7015h.74891Zm1.81231,0v.46679h-.7489V20.7015h.7489Zm1.81232,0v.46679h-.7489V20.7015h.7489Zm.53217-1.07129H4.75V13.27572h14.4997ZM5.28244,12.7474V11.73177h.7489V12.7474Zm1.81232,0V11.73177h.7489V12.7474Zm1.81231,0V11.73177H9.656V12.7474Zm1.81232,0V11.73177h.7489V12.7474Zm1.81232,0V11.73177h.7489V12.7474Zm1.81231,0V11.73177h.74891V12.7474Zm1.81232,0V11.73177h.7489V12.7474Zm1.81232,0V11.73177h.7489V12.7474Zm1.28107-2.043h-14.5v-.751h5.207V2.75033h9.293Z" fill="#171717"/><path d="M10.62473,13.66439v6.123l3.06054-3.06054Zm1.06274,2.4375.62506.625-.625.625Z" fill="#171717"/></svg>
